icons/calendar-date-17.svg

<svg
  xmlns="http://www.w3.org/2000/svg"
  viewBox="0 0 500 500"
  width="500"
  height="500"
  fill="#ffffff"
>
  <path d="M382.5 47.2h-16.7V5h-24.4v42.2H158.6V5h-24.4v42.2h-16.7a91.5 91.5 0 0 0-91.4 91.4v265a91.5 91.5 0 0 0 91.4 91.4h265a91.5 91.5 0 0 0 91.4-91.4v-265a91.5 91.5 0 0 0-91.4-91.4zm67 356.4a67.1 67.1 0 0 1-67 67h-265a67.1 67.1 0 0 1-67-67v-265c0-2.2.1-4.3.3-6.4h398.4c.2 2.1.3 4.2.3 6.4z" />
  <polygon
    data-name="1"
    points="119 215.7 124.4 236.9 160.1 217.6 160.8 217.6 160.8 397.3 187.6 397.3 187.6 191.6 163.9 191.6 119 215.7"
  />
  <polygon
    data-name="7"
    points="266.4 214.7 367 214.7 367 215.4 277.8 397.3 306.6 397.3 396.1 210 396.1 191.6 266.4 191.6 266.4 214.7"
  />
</svg>

<svg xmlns="http://www.w3.org/2000/svg" viewBox="0 0 500 500">
  <g id="calendar-date-17">
    <path id="outline" d="M382.5,47.2H365.8V5H341.4V47.2H158.6V5H134.2V47.2H117.5a91.5,91.5,0,0,0-91.4,91.4v265A91.5,91.5,0,0,0,117.5,495h265a91.5,91.5,0,0,0,91.4-91.4v-265A91.5,91.5,0,0,0,382.5,47.2Zm67,356.4a67.1,67.1,0,0,1-67,67h-265a67.1,67.1,0,0,1-67-67v-265c0-2.2.1-4.3.3-6.4H449.2c.2,2.1.3,4.2.3,6.4Z"/>
    <polygon id="_1" data-name="1" points="119 215.7 124.4 236.9 160.1 217.6 160.8 217.6 160.8 397.3 187.6 397.3 187.6 191.6 163.9 191.6 119 215.7"/>
    <polygon id="_7" data-name="7" points="266.4 214.7 367 214.7 367 215.4 277.8 397.3 306.6 397.3 396.1 210 396.1 191.6 266.4 191.6 266.4 214.7"/>
  </g>
</svg>
